X: 23
T: JIG: Atholl Highlanders
C: C: Trad.; S: Various
C: Set Leaders: André, Sophie
Z: [Unedited]; Mix O'Lydian at The Session
N: https://thesession.org/members/26966/sets/96710
R: Jig
M: 6/8
L: 1/8
Q: 3/8=116
K: Amix
|:e2e ecA|ecA Bcd|e2 e ecA|Bcd cBA|
e2e ecA|ecA Bcd|eae fed|cdB A3:||
|:Ace Ace|Adf Adf|Ace Ace|Bcd c2 B|
Ace Ace|Adf Adf|eae fed|cdB A3:||
|:aee edc|aee edc|aee edc|Bcd cBA|
aee edc|aee edc|aee fed|cdB A3:||
|:cAc cAc|dBd dBd|cAc cAc|BGB BGB|
cAc cAc|dcd Bcd|eae fed|cdB A3:||

